svgs/thin/mug-saucer.svg

<svg xmlns="http://www.w3.org/2000/svg" viewBox="0 0 640 512"><!--! Font Awesome Pro 6.6.0 by @fontawesome - https://fontawesome.com License - https://fontawesome.com/license (Commercial License) Copyright 2024 Fonticons, Inc. --><path d="M440 48l24 0 0 240c0 44.2-35.8 80-80 80l-192 0c-44.2 0-80-35.8-80-80l0-224c0-8.8 7.2-16 16-16l312 0zm40 176l0-176 24 0c48.6 0 88 39.4 88 88s-39.4 88-88 88l-24 0zm0 64l0-48 24 0c57.4 0 104-46.6 104-104s-46.6-104-104-104l-24 0-16 0-24 0L128 32c-17.7 0-32 14.3-32 32l0 224c0 53 43 96 96 96l192 0c53 0 96-43 96-96zM8 464c-4.4 0-8 3.6-8 8s3.6 8 8 8l560 0c4.4 0 8-3.6 8-8s-3.6-8-8-8L8 464z"/></svg>

<svg xmlns="http://www.w3.org/2000/svg" viewBox="0 0 640 512"><!--! Font Awesome Pro 6.4.2 by @fontawesome - https://fontawesome.com License - https://fontawesome.com/license (Commercial License) Copyright 2023 Fonticons, Inc. --><path d="M440 48h24V288c0 44.2-35.8 80-80 80H192c-44.2 0-80-35.8-80-80V64c0-8.8 7.2-16 16-16H440zm40 176V48h24c48.6 0 88 39.4 88 88s-39.4 88-88 88H480zm0 64V240h24c57.4 0 104-46.6 104-104s-46.6-104-104-104H480 464 440 128c-17.7 0-32 14.3-32 32V288c0 53 43 96 96 96H384c53 0 96-43 96-96zM8 464c-4.4 0-8 3.6-8 8s3.6 8 8 8H568c4.4 0 8-3.6 8-8s-3.6-8-8-8H8z"/></svg>
